X:1
T:Growling Old Man and Grumbling Old Woman
T:Growling Old Man and Grumbling Old Woman
T:La chicaneuse
T:French Canadian
C:French Canadian
L:1/8
M:2/2
K:G
V:1 treble 
V:1
 A,B, |"Am" CA,[A,E]A, CA,[A,E]A, |"G" B,G,[G,D]G, B,G,[G,D]G, ||"Am" CA,[A,E]A, CA,[A,E]A, |1,3 %4
"G" B,G,[G,D]G,"Am" A,2 :|2,4"G" B,G,[G,D][B,D]"Am" [A,E]2 :: ^cd |"A" efed ^cdef | %8
"G" g{f}edc BGGB |"A" efed ^cAcd | eaa^g a2 ef |"A" gfed ^cdef |"G" g{f}edc BGGB | %13
"Am" c2 B2{cB} AGE[DF] |"G" GEDB,"Am" A,2 :| %15

